X: 23120
T: Laurel's
R: reel
M: 4/4
K: Amajor
C3D EFAB|cfec BAFA|BF3 dcBA|
GBAF EFED|C3D EFAB|cfec BAFA|BF3 dcBA|1 EAGB AE2D:|2 EAGB ABcd||
e3f edcd|eaag aece|fB3 dcBA|GBAF EBcd|
e3f edcd|eaag aece|fB3 dcBA|EAGB ABcd|
e3f edcd|eaag aece|fB3 dcBA|GBAF EFED|
C3D EFAB|cfec BAFA|BF3 dcBA|EAGB AE2D||

